X: 27327
T: Mist Covered Mountain, The
R: jig
M: 6/8
K: Gdorian
uD v~G3 GA(c|d)GG PG(FD)|~F3 FGu(A|{d}cA)F {d}(ucA)F|
u~G3 GAc|dGG P(GFD|d)ef uA(GF)|uAG(G G2)D||
u~G3 GAc|dGG {d}GFD|{D}(E2F){A}(G2A|{d}cA)F {G}(FD)(vC|
vD)(GF) GAc|dGG P(GFD|d)ef A(GF)|AGG G2(ug|
{a}ugfd) g2a|{a}(vgf)(d {e}dcA)|vG(FD)F2 (G|A)GG (PGFD)|
({a}ugf)d g2a|{a}(ugf)(d {e}d)(cA)|vG(FD) F2 (G|A)GG G2 ()g|
{a}gfd) g2a|{a}(gf)(d {e}dcA)|G(FD) F2 (G|A)GA GF(vD|
vD)(CD) F2 (G|AGF) (ABc|d)ef (uAGF|A)GG G2||

